packages/tokens/icons/plug/size16Px.svg

<svg viewBox="0 0 16 16" fill="none" xmlns="http://www.w3.org/2000/svg" width="1em" height="1em"><path d="M7.52922 12.3873C8.3173 12.994 9.13115 13.3302 9.90741 13.3477C10.669 13.3649 11.4532 13.0771 12.2084 12.3219C12.9637 11.5666 13.2514 10.7825 13.2342 10.0209C13.2168 9.24461 12.8805 8.43076 12.2738 7.64268C12.1487 7.48015 11.8656 7.43823 11.655 7.64884L7.53538 11.7685C7.32477 11.9791 7.36669 12.2622 7.52922 12.3873Z" stroke="currentColor" stroke-linejoin="round"/><path d="M12.4999 12.5L13.4999 13.5" stroke="currentColor" stroke-linecap="round"/><path d="M3.49028 8.34834C2.88359 7.56026 2.54735 6.74641 2.52986 5.97015C2.5127 5.20855 2.80043 4.42438 3.55567 3.66913C4.31092 2.91389 5.09509 2.62616 5.85669 2.64332C6.63295 2.66081 7.4468 2.99705 8.23488 3.60374C8.39741 3.72885 8.43933 4.01192 8.22873 4.22252L4.10906 8.34219C3.89846 8.55279 3.61539 8.51087 3.49028 8.34834Z" stroke="currentColor" stroke-linejoin="round"/><path d="M3.5 3.5L2.5 2.50012" stroke="currentColor" stroke-linecap="round"/><path d="M5.7892 8.49787C5.98445 8.69314 6.30103 8.69315 6.4963 8.49789C6.69157 8.30263 6.69158 7.98605 6.49632 7.79078L5.7892 8.49787ZM7.67722 6.60976C7.87248 6.80503 8.18906 6.80504 8.38432 6.60978C8.57959 6.41452 8.5796 6.09794 8.38434 5.90267L7.67722 6.60976ZM6.49632 7.79078L5.38957 6.68398L4.68245 7.39106L5.7892 8.49787L6.49632 7.79078ZM8.38434 5.90267L7.2776 4.79587L6.57047 5.50296L7.67722 6.60976L8.38434 5.90267Z" fill="currentColor"/></svg>

<svg xmlns="http://www.w3.org/2000/svg" fill="none" viewBox="0 0 16 16" width="1em" height="1em"><path stroke="currentColor" stroke-linejoin="round" d="M7.53 12.387c.787.607 1.601.943 2.377.96.762.018 1.546-.27 2.301-1.025.756-.755 1.043-1.54 1.026-2.301-.017-.776-.354-1.59-.96-2.378-.125-.163-.408-.205-.619.006l-4.12 4.12c-.21.21-.168.493-.006.618Z"/><path stroke="currentColor" stroke-linecap="round" d="m12.5 12.5 1 1"/><path stroke="currentColor" stroke-linejoin="round" d="M3.49 8.348c-.606-.788-.943-1.602-.96-2.378-.017-.761.27-1.546 1.026-2.3.755-.756 1.54-1.044 2.3-1.027.777.018 1.59.354 2.379.96.162.126.204.409-.006.62l-4.12 4.12c-.21.21-.494.168-.619.005Z"/><path stroke="currentColor" stroke-linecap="round" d="m3.5 3.5-1-1"/><path fill="currentColor" d="M5.79 8.498a.5.5 0 1 0 .706-.707l-.707.707ZM7.676 6.61a.5.5 0 1 0 .707-.707l-.707.707Zm-1.18 1.18L5.39 6.685l-.708.707L5.79 8.498l.707-.707Zm1.887-1.887L7.278 4.796l-.708.707L7.677 6.61l.707-.707Z"/></svg>
